packages/icons/src/components/Icon/assets/small-outline/leaf.svg

<svg width="16" height="16" viewBox="0 0 16 16" fill="none" xmlns="http://www.w3.org/2000/svg">
<path fill-rule="evenodd" clip-rule="evenodd" d="M8.32786 6.59261C8.49608 6.97112 8.3256 7.41434 7.94708 7.58256C6.40964 8.26584 5.33098 9.18892 4.59008 10.3003C3.84543 11.4172 3.41508 12.7651 3.2409 14.3328C3.19516 14.7445 2.82435 15.0412 2.41267 14.9954C2.00099 14.9497 1.70434 14.5789 1.75008 14.1672C1.94351 12.4261 2.43225 10.8329 3.342 9.46823C4.25549 8.098 5.56653 6.99907 7.3379 6.21183C7.71642 6.04361 8.15964 6.21409 8.32786 6.59261Z" fill="black"/>
<path fill-rule="evenodd" clip-rule="evenodd" d="M3.19251 3.11358C4.75877 1.75489 7.16841 1 10.5734 1H13.5248C13.939 1 14.2748 1.33579 14.2748 1.75V3.22057C14.2748 3.2349 14.2744 3.24923 14.2736 3.26354C14.0836 6.57357 13.168 8.98381 11.5878 10.5646C10.0003 12.1528 7.85263 12.7939 5.43671 12.7939H3.22057C3.02166 12.7939 2.83089 12.7149 2.69024 12.5743C1.00373 10.8878 1 9.16108 1 8.36752L1 8.36542C1.00556 6.37585 1.6079 4.48819 3.19251 3.11358ZM2.5 8.3686L2.5 8.37352C2.49999 9.0119 2.49997 10.1224 3.54339 11.2939H5.43671C7.59276 11.2939 9.3053 10.7263 10.527 9.5042C11.7531 8.27761 12.5945 6.28251 12.7748 3.19887V2.5H10.5734C7.36082 2.5 5.36392 3.21568 4.17543 4.24666C3.00554 5.26151 2.50491 6.68224 2.5 8.3686Z" fill="black"/>
</svg>

<svg xmlns="http://www.w3.org/2000/svg" width="16" height="16" fill="none" viewBox="0 0 16 16">
    <path d="M8.328 6.593a.75.75 0 0 1-.38.99C6.41 8.266 5.33 9.189 4.59 10.3c-.745 1.117-1.175 2.465-1.35 4.033a.75.75 0 1 1-1.49-.166c.194-1.74.682-3.334 1.592-4.699C4.255 8.098 5.567 7 7.338 6.212a.75.75 0 0 1 .99.38" clip-rule="evenodd"/>
    <path d="M3.193 3.114C4.759 1.754 7.168 1 10.573 1h2.952a.75.75 0 0 1 .75.75v1.47l-.001.044c-.19 3.31-1.106 5.72-2.686 7.3-1.588 1.589-3.735 2.23-6.151 2.23H3.22a.75.75 0 0 1-.53-.22C1.003 10.888 1 9.161 1 8.368v-.003c.006-1.99.608-3.877 2.193-5.251M2.5 8.369v.005c0 .638 0 1.748 1.043 2.92h1.894c2.156 0 3.868-.568 5.09-1.79 1.226-1.226 2.068-3.221 2.248-6.305V2.5h-2.202c-3.212 0-5.21.716-6.398 1.747-1.17 1.015-1.67 2.435-1.675 4.122" clip-rule="evenodd"/>
</svg>
